docs/icons/midw.svg

<?xml version="1.0" encoding="UTF-8"?>
<svg width="399px" height="396px" viewBox="0 0 399 396" version="1.1" xmlns="http://www.w3.org/2000/svg" xmlns:xlink="http://www.w3.org/1999/xlink">
    <title>编组 5</title>
    <defs>
        <filter id="filter-1">
            <feColorMatrix in="SourceGraphic" type="matrix" values="0 0 0 0 0.145098 0 0 0 0 0.419608 0 0 0 0 1.000000 0 0 0 1.000000 0"></feColorMatrix>
        </filter>
    </defs>
    <g id="页面-1" stroke="none" stroke-width="1" fill="none" fill-rule="evenodd">
        <g id="编组-5" filter="url(#filter-1)">
            <g>
                <g id="编组备份" transform="translate(199.500000, 198.000000) scale(-1, 1) translate(-199.500000, -198.000000) " fill="#92B9FF" fill-rule="nonzero">
                    <path d="M99.4392524,345.2625 L96.9532709,345.2625 C94.4672894,346.5 90.7383178,347.7375 89.4953268,350.2125 C85.7663548,356.4 90.7383174,363.825 96.9532709,367.5375 C128.028037,386.1 164.074766,396 200.121495,396 C253.570093,396 303.28972,374.9625 340.579439,337.8375 C377.869158,300.7125 399,251.2125 399,198 C399,144.7875 377.869159,95.2874999 340.579439,58.1625002 C303.289719,21.0375005 253.570093,0 200.121495,0 C146.672897,0 95.7102803,22.2750003 58.4205605,59.4000001 C21.1308408,96.5249998 0,146.025 0,199.2375 C0,237.6 11.1869161,274.725 32.3177568,306.9 C33.5607473,309.375 37.2897194,311.85 39.7757009,311.85 C42.2616824,313.0875 45.9906539,311.85 48.4766354,310.6125 C54.6915885,305.6625 49.719626,295.7625 47.2336449,293.2875 C28.5887852,264.825 18.6448597,232.65 18.6448597,199.2375 C18.6448597,175.725 23.6168222,153.45 33.5607478,131.175 C42.2616824,110.1375 55.9345795,90.3375004 73.3364486,74.2500003 C89.4953273,58.1625002 109.383177,44.5500003 130.514019,34.65 C152.88785,25.9875 175.261682,21.0375 198.878505,21.0375 C222.495327,21.0375 244.869159,25.9875 267.24299,35.8875003 C288.373832,44.5500003 308.261682,58.1625002 324.42056,75.4875002 C340.579439,91.5750003 354.252336,111.375 364.196262,132.4125 C374.140187,154.6875 379.112149,176.9625 379.112149,200.475 C379.112149,223.9875 374.140187,246.2625 364.196262,268.5375 C355.495327,289.575 341.82243,309.375 324.42056,325.4625 C307.018691,341.550001 288.373832,355.1625 267.24299,365.0625 C244.869159,374.9625 222.495327,379.9125 198.878505,379.9125 C161.588785,379.9125 124.299066,361.35 105.654205,348.975 C103.168224,346.5 101.925233,345.2625 99.4392524,345.2625 L99.4392524,345.2625 Z" id="路径"></path>
                </g>
                <g id="midway-faas备份-2" transform="translate(201.631445, 194.385986) rotate(-315.000000) translate(-201.631445, -194.385986) translate(100.434984, 93.977986)" fill="#92B9FF" fill-rule="nonzero">
                    <path d="M191.150517,2.84217094e-12 C197.359526,2.84217094e-12 202.392922,4.98904018 202.392922,11.1548116 L202.392,81.12 L146.272143,81.1203808 C142.393698,81.1203808 139.2624,84.1551019 139.136208,87.9460878 L139.132254,88.1839886 L139.132254,115.061113 C139.132254,126.776706 129.560311,136.274071 117.75272,136.274071 C105.945129,136.274071 96.373186,126.776706 96.373186,115.061123 L96.373186,115.061123 L96.373186,87.4961164 C96.373186,81.6237602 91.5872142,76.8777893 85.6834189,76.8777893 C79.7916367,76.8777893 74.9936519,81.6317763 74.9936519,87.4961164 L74.9936519,87.4961164 L74.9936519,115.756364 C74.9936519,115.990399 75.0012536,116.222645 75.0162246,116.452872 C75.7564132,139.239861 94.6069062,157.487029 117.75272,157.487029 C140.890934,157.487029 159.736647,139.251843 160.48848,116.475318 L160.488481,116.47531 L160.511788,116.47531 L160.511788,102.333339 L202.392,102.333 L202.392922,189.661188 C202.392922,195.821821 197.364705,200.816 191.150517,200.816 L11.2424055,200.816 C5.03339641,200.816 -1.36260141e-12,195.82696 -1.36260141e-12,189.661188 L3.22750466e-12,121.620958 L56.9987136,121.620958 C60.9579588,121.620958 64.1386021,118.458473 64.1386021,114.55735 L64.1386021,114.55735 L64.1386021,87.6802254 C64.1386021,75.9646323 73.7105455,66.4672676 85.5181361,66.4672676 C97.3257267,66.4672676 106.89767,75.9646323 106.89767,87.6802156 L106.89767,87.6802156 L106.89767,115.245222 C106.89767,121.117578 111.683642,125.863549 117.587437,125.863549 C123.479219,125.863549 128.277204,121.109562 128.277204,115.245222 L128.277204,115.245222 L128.277204,86.9849751 C128.277204,86.75094 128.269603,86.518694 128.254631,86.2884662 C127.514443,63.5014772 108.66395,45.2543099 85.5181361,45.2543099 C62.3799225,45.2543099 43.5342093,63.4894959 42.7823758,86.2660207 L42.7823755,86.2660282 L42.7590681,86.2660282 L42.7590681,100.408 L3.22750466e-12,100.408 L-1.36260141e-12,11.1548116 C-1.36260141e-12,4.99417925 5.02821698,2.84217094e-12 11.2424055,2.84217094e-12 L191.150517,2.84217094e-12 Z" id="Combined-Shape"></path>
                </g>
            </g>
        </g>
    </g>
</svg>

<svg xmlns="http://www.w3.org/2000/svg" width="399" height="396" xmlns:v="https://vecta.io/nano"><defs><filter id="A"><feColorMatrix in="SourceGraphic" values="0 0 0 0 0.145098 0 0 0 0 0.419608 0 0 0 0 1.000000 0 0 0 1.000000 0"/></filter></defs><g filter="url(#A)" fill-rule="evenodd"><g fill="#92b9ff"><g fill-rule="nonzero"><g transform="matrix(-1 0 0 1 399 0)"><path d="M99.439 345.263h-2.486c-2.486 1.238-6.215 2.475-7.458 4.95-3.729 6.188 1.243 13.613 7.458 17.325C128.028 386.1 164.075 396 200.121 396c53.449 0 103.168-21.038 140.458-58.163S399 251.213 399 198 377.869 95.287 340.579 58.163 253.57 0 200.121 0 95.71 22.275 58.421 59.4 0 146.025 0 199.238C0 237.6 11.187 274.725 32.318 306.9c1.243 2.475 4.972 4.95 7.458 4.95 2.486 1.237 6.215 0 8.701-1.238 6.215-4.95 1.243-14.85-1.243-17.325-18.645-28.463-28.589-60.638-28.589-94.05 0-23.513 4.972-45.788 14.916-68.062 8.701-21.038 22.374-40.837 39.776-56.925 16.159-16.088 36.047-29.7 57.178-39.6 22.374-8.662 44.748-13.612 68.364-13.612s45.991 4.95 68.364 14.85c21.131 8.663 41.019 22.275 57.178 39.6 16.159 16.088 29.832 35.887 39.776 56.925 9.944 22.275 14.916 44.55 14.916 68.063s-4.972 45.787-14.916 68.063c-8.701 21.037-22.374 40.837-39.776 56.925s-36.047 29.7-57.178 39.6c-22.374 9.9-44.748 14.85-68.364 14.85-37.29 0-74.579-18.562-93.224-30.937-2.486-2.475-3.729-3.713-6.215-3.713h0z"/></g><g transform="matrix(.707107 .707107 -.707107 .707107 201.073919 51.830105)"><path d="M191.151 0c6.209 0 11.242 4.989 11.242 11.155l-.001 69.965h-56.12c-3.878 0-7.01 3.035-7.136 6.826l-.004.238v26.877c0 11.716-9.572 21.213-21.38 21.213s-21.38-9.497-21.38-21.213h0V87.496c0-5.872-4.786-10.618-10.69-10.618-5.892 0-10.69 4.754-10.69 10.618h0v28.26c0 .234.008.466.023.697.74 22.787 19.591 41.034 42.736 41.034 23.138 0 41.984-18.235 42.736-41.012h0 .023v-14.142h41.88l.001 87.328c0 6.161-5.028 11.155-11.242 11.155H11.242C5.033 200.816 0 195.827 0 189.661v-68.04h56.999c3.959 0 7.14-3.162 7.14-7.064h0V87.68c0-11.716 9.572-21.213 21.38-21.213s21.38 9.497 21.38 21.213h0v27.565c0 5.872 4.786 10.618 10.69 10.618 5.892 0 10.69-4.754 10.69-10.618h0v-28.26a10.73 10.73 0 0 0-.023-.697c-.74-22.787-19.591-41.034-42.736-41.034-23.138 0-41.984 18.235-42.736 41.012h0-.023v14.142H0V11.155C0 4.994 5.028 0 11.242 0h179.908z"/></g></g></g></g></svg>
